svg/fluentui-system-icons/ic_fluent_accessibility_20_filled.svg

<svg width="20" height="20" viewBox="0 0 20 20" fill="none" xmlns="http://www.w3.org/2000/svg">
<path d="M10 6C11.1046 6 12 5.10457 12 4C12 2.89543 11.1046 2 10 2C8.89543 2 8 2.89543 8 4C8 5.10457 8.89543 6 10 6ZM5.4719 4.15059C4.59026 3.75806 3.55353 4.15168 3.15457 5.03042C2.75442 5.91176 3.1474 6.94681 4.03165 7.3405L6.70334 8.53002C6.88375 8.61034 6.99997 8.78931 6.99997 8.98679V10.8519C6.99997 10.9161 6.98761 10.9797 6.96357 11.0392L5.12327 15.5941C4.76122 16.4902 5.19416 17.5101 6.09028 17.8722C6.9864 18.2342 8.00636 17.8013 8.36842 16.9052L9.76592 13.4462C9.85014 13.2378 10.1453 13.2378 10.2295 13.4462L11.6269 16.905C11.989 17.8011 13.009 18.2341 13.9051 17.872C14.8012 17.51 15.2341 16.49 14.8721 15.5939L13.0364 11.0504C13.0123 10.9908 13 10.9272 13 10.8631V8.98679C13 8.78931 13.1162 8.61034 13.2966 8.53002L15.9683 7.3405C16.8525 6.94681 17.2455 5.91176 16.8454 5.03042C16.4464 4.15168 15.4097 3.75806 14.5281 4.15059L13.2519 4.71874C13.0057 4.82838 12.8303 5.02588 12.7315 5.24269C12.2586 6.28043 11.2128 7.00012 10 7.00012C8.78722 7.00012 7.74147 6.28044 7.2685 5.24271C7.16969 5.0259 6.99432 4.82841 6.74808 4.71878L5.4719 4.15059Z" fill="#212121"/>
</svg>

<svg xmlns="http://www.w3.org/2000/svg" width="20" height="20"><path d="M10 6a2 2 0 1 0 0-4 2 2 0 0 0 0 4ZM5.472 4.15a1.761 1.761 0 0 0-2.317.88c-.4.882-.008 1.917.877 2.31l2.671 1.19A.5.5 0 0 1 7 8.987v1.865a.5.5 0 0 1-.036.187l-1.84 4.555a1.75 1.75 0 0 0 3.244 1.311l1.398-3.459a.25.25 0 0 1 .463 0l1.398 3.459a1.75 1.75 0 0 0 3.245-1.311l-1.836-4.544a.5.5 0 0 1-.036-.187V8.987a.5.5 0 0 1 .297-.457l2.671-1.19a1.74 1.74 0 0 0 .877-2.31 1.761 1.761 0 0 0-2.317-.88l-1.276.569a1.04 1.04 0 0 0-.52.524 3 3 0 0 1-5.463 0 1.042 1.042 0 0 0-.52-.524L5.471 4.15Z"/></svg>
